X: 1127
T: Spancil Hill (A57)
N: page A57
N: hexatonic
M: 3/4
L: 1/4
K: Dmix
A|"Dm"A2 D|A2 A|"C"G2 E|"Am"C2 D|E G E|"Dm"D2 C|D3-|
D2 A|A2 d|d2 e|d2 c|A2 B|"F"c2 d|c B A|"C" G3-|
G c B|"Dm"A2 D|A2 A|"C"G2 E|C2 D|E G E|D2 C|"Dm"D3-|D2|
